icons/linear-ele-communication-mail-message.svg

<svg xmlns="http://www.w3.org/2000/svg" width="32px" height="32px" viewBox="0 0 32 32" version="1.1">
    <title>linear-ele-communication-mail-message</title>
    <g id="linear-ele-communication-mail-message" stroke-width="1" fill-rule="evenodd">
        <path d="M29,5 C29.5522847,5 30,5.44771525 30,6 L30,26 C30,26.5522847 29.5522847,27 29,27 L3,27 C2.44771525,27 2,26.5522847 2,26 L2,6 C2,5.44771525 2.44771525,5 3,5 L29,5 Z M28,8.414 L16.7071068,19.7071068 C16.3165825,20.0976311 15.6834175,20.0976311 15.2928932,19.7071068 L4,8.415 L4,25 L28,25 L28,8.414 Z M26.584,7 L5.415,7 L16,17.585 L26.584,7 Z" id="&#24418;&#29366;" fill-rule="nonzero" />
    </g>
</svg>

<svg xmlns="http://www.w3.org/2000/svg" viewBox="0 0 32 32"><path fill="currentColor" d="M29 5a1 1 0 0 1 1 1v20a1 1 0 0 1-1 1H3a1 1 0 0 1-1-1V6a1 1 0 0 1 1-1zm-1 3.414L16.707 19.707a1 1 0 0 1-1.414 0L4 8.415V25h24zM26.584 7H5.415L16 17.585z"/></svg>
